src/assets/img/small_logo.svg

<svg width="148" height="75" viewBox="0 0 148 75" fill="none" xmlns="http://www.w3.org/2000/svg">
<g clip-path="url(#clip0)">
<path fill-rule="evenodd" clip-rule="evenodd" d="M15.3239 32.4818C15.409 31.7176 23.6728 13.9272 24.1255 13.4362L32.8471 32.4818H15.3239ZM24.067 0.412109H24.0027L0.292969 49.7357L6.65056 49.7663C7.29511 49.4524 6.73059 50.0448 7.25744 49.1795C7.36925 48.9972 7.50263 48.6535 7.59835 48.4358C7.82196 47.9194 8.02439 47.5299 8.30135 46.9681L12.2895 37.8904H35.2013C35.8611 38.0224 38.0231 43.1428 38.2894 43.7046C38.8273 44.8476 40.6166 49.2049 41.4043 49.7663L47.7721 49.7611C47.3625 48.2889 42.9692 39.7481 41.91 37.4099C40.0195 33.2304 37.8316 29.1978 35.9517 25.0486C34.0989 20.9552 32.0064 16.9122 30.052 12.8088C28.0657 8.65471 26.0635 4.47041 24.067 0.412109Z" fill="#DA2927"/>
<path fill-rule="evenodd" clip-rule="evenodd" d="M42.1289 24.8105C43.8221 29.0508 45.6804 33.2202 47.5387 37.425L62.3515 71.5387C62.5967 72.0856 62.7987 72.5356 63.0172 73.0519C63.2298 73.563 63.4111 74.1852 63.821 74.5293L85.2786 24.8109H78.7825C78.2506 24.9627 75.3111 32.4462 74.8799 33.4733C73.1813 37.4809 64.3428 59.0003 63.6771 59.7392L48.9333 24.8158L42.1289 24.8105Z" fill="#41201C"/>
<path fill-rule="evenodd" clip-rule="evenodd" d="M106.492 50.632L109.703 50.6928L109.762 32.234L129.42 51.5826V25.843L126.166 25.7976L126.156 44.0487C125.554 43.7553 121.555 39.6515 121.151 39.2266C119.57 37.5669 117.908 36.0235 116.316 34.3589C115.896 33.9186 115.587 33.5593 115.15 33.1447C114.154 32.1832 107.116 25.0591 106.492 24.75V50.632Z" fill="#41201C"/>
<path fill-rule="evenodd" clip-rule="evenodd" d="M87.563 41.6032C87.6858 40.8904 91.8014 32.0353 92.18 31.6912L96.6734 41.6032H87.563ZM79.6562 50.6306L83.0642 50.6966C83.8307 49.3757 85.567 45.8591 86.0248 44.4421H98.1861C98.5003 45.5098 100.561 49.75 101.157 50.6917H104.496C104.373 50.0236 92.5578 25.4222 92.1212 24.9062C91.5833 25.4983 83.8362 41.9879 82.686 44.2907C81.637 46.4008 80.6574 48.7028 79.6562 50.6306Z" fill="#41201C"/>
<path fill-rule="evenodd" clip-rule="evenodd" d="M131.648 28.5349L137.873 28.636L137.867 50.6874H141.131V28.6158H147.35L147.345 25.7773L131.659 25.7822L131.648 28.5349Z" fill="#41201C"/>
<path fill-rule="evenodd" clip-rule="evenodd" d="M84.8359 58.7342C91.0597 57.7731 92.5987 66.5618 86.3851 67.4376C79.676 68.3837 78.5473 59.7057 84.8359 58.7342ZM90.2613 59.6449C88.733 58.3241 86.5981 57.1046 83.446 58.046C78.2119 59.6046 78.1425 66.6782 83.3981 68.1407C86.2732 68.9399 88.0198 68.2417 89.9047 66.825C90.1919 66.6077 89.9102 66.7743 90.3092 66.5719V74.1517L91.5179 74.1465L91.4594 57.9647L90.3363 58.0005L90.2613 59.6449Z" fill="#DA2927"/>
<path fill-rule="evenodd" clip-rule="evenodd" d="M112.274 58.7379C115.037 58.3129 117.46 59.9372 117.811 62.2195C118.242 64.9968 116.384 67.0364 113.978 67.4207C107.433 68.4582 105.927 59.7195 112.274 58.7379ZM117.79 59.6438C117.045 59.2542 116.858 58.5153 114.925 57.9942C106.8 55.7932 103.909 66.1707 111.001 68.1492C115.042 69.2728 116.911 66.9499 117.785 66.4694L117.849 68.2047H118.993L118.919 57.9584L117.832 57.9535L117.79 59.6438Z" fill="#DA2927"/>
<path fill-rule="evenodd" clip-rule="evenodd" d="M137.286 67.2645C137.642 66.5916 146.481 58.7892 147.067 57.959H136.274L136.322 58.885L144.501 58.9208C143.665 60.1503 135.124 67.3961 134.746 68.2054H144.336C147.217 68.2054 147.136 68.5596 147.136 67.2745L137.286 67.2645Z" fill="#DA2927"/>
<path fill-rule="evenodd" clip-rule="evenodd" d="M95.4313 57.9574C95.4313 60.0678 95.2238 63.4222 95.4953 65.3906C96.0594 69.504 103.78 69.56 104.233 65.1628C104.387 63.6754 104.403 59.4505 104.227 57.9675L103.12 57.988C102.523 62.6427 104.701 67.6524 99.6481 67.4902C97.3214 67.4093 96.6769 66.1444 96.629 63.9635L96.6451 59.1213C96.64 57.7956 96.5498 57.9574 95.4313 57.9574Z" fill="#DA2927"/>
<path fill-rule="evenodd" clip-rule="evenodd" d="M129.832 58.8543L131.158 58.9303L131.211 68.2049H132.356L132.362 58.915L134.497 58.8595L134.47 57.9737L132.362 57.8977V54.2949H131.164V57.9234L129.816 58.024L129.832 58.8543Z" fill="#DA2927"/>
<path fill-rule="evenodd" clip-rule="evenodd" d="M124.237 68.2054C124.487 65.9842 124.087 63.4238 124.349 61.2027C124.482 60.0944 124.881 59.2899 125.69 58.9055C127.171 58.1972 127.341 59.5176 128.203 58.0708C128.038 57.9541 128.209 57.9694 127.703 57.8225C125.808 57.276 124.711 58.7937 124.306 59.1635L124.2 57.9593H123.098L123.135 68.2057H124.237V68.2054Z" fill="#DA2927"/>
</g>
<defs>
<clipPath id="clip0">
<rect width="147.059" height="74.1176" fill="white" transform="translate(0.292969 0.412109)"/>
</clipPath>
</defs>
</svg>

<svg xmlns="http://www.w3.org/2000/svg" fill="none" viewBox="0 0 148 75"><g fill-rule="evenodd" clip-path="url(#clip0)" clip-rule="evenodd"><path fill="#DA2927" d="M15.324 32.482c.085-.764 8.349-18.555 8.801-19.046l8.722 19.046H15.324zM24.067.412h-.064L.293 49.736l6.358.03c.644-.314.08.279.606-.587.112-.182.246-.526.341-.743.224-.517.426-.906.703-1.468l3.989-9.078H35.2c.66.132 2.822 5.253 3.088 5.815.538 1.143 2.328 5.5 3.115 6.061l6.368-.005c-.41-1.472-4.803-10.013-5.862-12.351-1.89-4.18-4.078-8.212-5.958-12.361-1.853-4.094-3.946-8.137-5.9-12.24A1242.63 1242.63 0 0 0 24.067.412z"/><path fill="#41201C" d="M42.129 24.81c1.693 4.24 3.551 8.41 5.41 12.615l14.813 34.114c.245.547.447.997.665 1.513.213.511.394 1.133.804 1.477l21.458-49.718h-6.496c-.532.152-3.472 7.635-3.903 8.662C73.18 37.481 64.343 59 63.677 59.74L48.933 24.816l-6.804-.005zM106.492 50.632l3.211.06.059-18.458 19.658 19.349v-25.74l-3.254-.045-.01 18.25c-.602-.293-4.601-4.397-5.005-4.821-1.581-1.66-3.243-3.203-4.835-4.868-.42-.44-.729-.8-1.166-1.214-.996-.962-8.034-8.086-8.658-8.395v25.882zM87.563 41.603c.123-.713 4.238-9.568 4.617-9.912l4.493 9.912h-9.11zm-7.907 9.028l3.408.066c.767-1.321 2.503-4.838 2.96-6.255h12.162c.314 1.068 2.375 5.308 2.971 6.25h3.339c-.123-.668-11.938-25.27-12.375-25.786-.538.592-8.285 17.082-9.435 19.385-1.049 2.11-2.029 4.412-3.03 6.34zM131.648 28.535l6.225.101-.006 22.051h3.264V28.616h6.219l-.005-2.839-15.686.005-.011 2.753z"/><path fill="#DA2927" d="M84.836 58.734c6.224-.96 7.763 7.828 1.55 8.704-6.71.946-7.839-7.732-1.55-8.704zm5.425.91c-1.528-1.32-3.663-2.54-6.815-1.598-5.234 1.559-5.303 8.632-.048 10.095 2.875.799 4.622.1 6.507-1.316.287-.217.005-.05.404-.253v7.58l1.209-.005-.059-16.182-1.123.035-.075 1.645zM112.274 58.738c2.763-.425 5.186 1.2 5.537 3.481.431 2.778-1.427 4.817-3.833 5.202-6.545 1.037-8.051-7.702-1.704-8.683zm5.516.906c-.745-.39-.932-1.129-2.865-1.65-8.125-2.2-11.016 8.177-3.924 10.155 4.041 1.124 5.91-1.2 6.784-1.68l.064 1.736h1.144l-.074-10.247-1.087-.005-.042 1.69zM137.286 67.264c.356-.672 9.195-8.475 9.781-9.305h-10.793l.048.926 8.179.036c-.836 1.23-9.377 8.475-9.755 9.284h9.59c2.881 0 2.8.355 2.8-.93l-9.85-.01zM95.431 57.957c0 2.11-.207 5.465.064 7.434.564 4.113 8.285 4.169 8.738-.228.154-1.488.17-5.712-.006-7.195l-1.107.02c-.597 4.655 1.581 9.664-3.472 9.502-2.327-.08-2.971-1.346-3.019-3.526l.016-4.843c-.005-1.325-.095-1.164-1.214-1.164zM129.832 58.854l1.326.076.053 9.275h1.145l.006-9.29 2.135-.056-.027-.885-2.108-.076v-3.603h-1.198v3.628l-1.348.101.016.83zM124.237 68.205c.25-2.22-.15-4.781.112-7.002.133-1.109.532-1.913 1.341-2.297 1.481-.709 1.651.612 2.513-.835-.165-.117.006-.102-.5-.248-1.895-.547-2.992.97-3.397 1.34l-.106-1.204h-1.102l.037 10.247h1.102z"/></g><defs><clipPath id="clip0"><path fill="#fff" d="M0 0h147.059v74.118H0z" transform="translate(.293 .412)"/></clipPath></defs></svg>
